X:1
T: Lady Radcliffe
C:Alexander Walker
R:Reel
Q: 232
K:F
M:4/4
L:1/8
|:C|F2 AF Ac fA|F2 AF EC GC|F2 AF Ac ef|cA GA F2 FC|
F2 AF Ac fA|F2 AF EC GC|F2 AF Ac ef|cA GA F2 Ff|
af f2 cf f2|af cf dg gb|af f2 cf Af|BG EC F2 FA|
Bd dB Ac cA|BA GF EG GB|AF cF dF eF|dg ec f2 f:|
